public/icon/svg/Kodi.svg

<?xml version="1.0" encoding="UTF-8"?>
<svg width="1024px" height="1024px" viewBox="0 0 1024 1024" version="1.1" xmlns="http://www.w3.org/2000/svg" xmlns:xlink="http://www.w3.org/1999/xlink">
    <title>Kodi</title>
    <g id="ICON-新版方图标" stroke="none" stroke-width="1" fill="none" fill-rule="evenodd">
        <g id="Kodi">
            <rect id="蒙版路径" fill="#1B4352" x="0" y="0" width="1024" height="1024"></rect>
            <path d="M512.796541,155 C506.084944,155 499.348261,158.204044 492.907022,164.679113 C465.503655,192.214495 438.122352,219.78045 410.763115,247.376979 C403.82854,254.34496 397.228431,261.716233 389.870201,268.146492 C380.661265,276.122702 377.829461,285.555243 378.007843,297.653287 C378.60988,339.438069 378.253117,381.268362 378.253117,423.051743 L378.253117,553.291097 C378.253117,556.581844 378.322797,559.942607 379.145024,563.059714 C381.731553,573.119597 388.153282,574.799978 395.380512,567.540731 C434.334071,528.399515 473.2579,489.235895 512.151999,450.04987 L644.417578,317.031585 C657.194141,304.148661 657.194141,289.988648 644.417578,277.12883 L532.640768,164.656708 C526.21904,158.181638 519.508139,154.977712 512.818839,155 L512.796541,155 Z M728.128358,371.020416 C721.519336,371.020416 714.927012,374.133077 708.827232,380.246433 L596.516998,493.218946 C583.805415,506.025082 583.849939,519.934086 596.516998,532.697534 L708.114849,645.13261 C721.182624,658.277444 735.074092,658.277444 748.074385,645.202588 C784.138309,608.903608 820.194811,572.604627 856.243893,536.305646 C861.653552,530.931267 866.72928,525.444923 869,517.943186 L869,508.090159 C866.704234,500.588422 861.695292,495.079685 856.288417,489.66052 C819.95735,453.224846 783.685648,416.716862 747.473312,380.136566 C741.395794,374.023211 734.742249,370.97773 728.127662,371 L728.128358,371.020416 Z M279.306209,381.045012 C276.741272,381.470192 275.001575,383.842248 273.150359,385.72199 L161.208958,499.221215 C152.889639,507.702433 152.934247,519.431241 161.320478,527.864906 L222.075344,588.911072 C239.628438,606.522466 257.069316,624.177917 274.62241,641.789312 C279.640766,646.801957 284.436084,645.92922 287.001021,639.282988 C288.267241,635.806711 288.901793,632.130761 288.874541,628.429715 C288.98606,590.141623 289.023233,551.838612 288.98606,513.520683 L288.91636,513.520683 L288.91636,398.141715 C288.880056,395.623108 288.663898,393.110349 288.26955,390.622747 C287.711955,386.594727 286.128385,382.924754 282.1137,381.403058 C281.456305,381.130241 280.750824,380.993243 280.039447,381 C279.771801,381 279.526459,381.022634 279.258813,381.045012 L279.281117,381.045012 L279.306209,381.045012 Z M513.996284,585.02171 C507.342759,585.02171 500.733738,588.181538 494.525264,594.433962 L382.621135,707.178596 C369.781388,720.154058 369.781388,734.047634 382.690675,747.045506 C418.739416,783.37185 454.765903,819.713134 490.770138,856.069359 C496.110761,861.447789 501.473637,866.644136 508.906003,869 L518.692973,869 C525.925066,866.938269 531.243436,862.254553 536.42551,856.988173 C572.674523,820.236037 609.027383,783.581011 645.484087,747.023096 C658.234824,734.182095 658.145813,719.974076 645.372824,707.044135 L533.469391,594.300202 C527.305423,588.092598 520.651896,585 513.998371,585 L513.996284,585.02171 Z" id="形状" fill="#17B2E7" fill-rule="nonzero"></path>
        </g>
    </g>
</svg>

<svg xmlns="http://www.w3.org/2000/svg" width="1024" height="1024"><g fill="none" fill-rule="evenodd"><path fill="#1B4352" d="M0 0h1024v1024H0z"/><path fill="#17B2E7" fill-rule="nonzero" d="M512.797 155c-6.712 0-13.449 3.204-19.89 9.68a60870.69 60870.69 0 0 0-82.144 82.697c-6.934 6.968-13.535 14.34-20.893 20.77-9.209 7.976-12.04 17.408-11.862 29.506.602 41.785.245 83.615.245 125.399v130.24c0 3.29.07 6.65.892 9.768 2.587 10.06 9.008 11.74 16.236 4.48 38.953-39.14 77.877-78.304 116.771-117.49l132.266-133.018c12.776-12.883 12.776-27.043 0-39.903L532.64 164.657c-6.422-6.475-13.133-9.68-19.822-9.657h-.022m215.331 216.02c-6.609 0-13.201 3.113-19.3 9.226L596.516 493.22c-12.712 12.806-12.667 26.715 0 39.479l111.598 112.435c13.068 13.144 26.96 13.144 39.96.07 36.063-36.3 72.12-72.598 108.169-108.897 5.41-5.375 10.485-10.861 12.756-18.363v-9.853c-2.296-7.502-7.305-13.01-12.712-18.43a42680.962 42680.962 0 0 1-108.815-109.523c-6.077-6.114-12.73-9.16-19.345-9.137v.02m-448.822 10.025c-2.565.425-4.304 2.797-6.156 4.677l-111.941 113.5c-8.32 8.48-8.275 20.21.111 28.643l60.755 61.046c17.553 17.611 34.994 35.267 52.547 52.878 5.019 5.013 9.814 4.14 12.379-2.506a31.045 31.045 0 0 0 1.874-10.853c.111-38.288.148-76.591.111-114.91h-.07V398.143a52.892 52.892 0 0 0-.646-7.52c-.558-4.027-2.142-7.697-6.156-9.219a5.28 5.28 0 0 0-2.075-.403c-.267 0-.513.023-.78.045h.047m234.69 203.977c-6.653 0-13.262 3.16-19.47 9.412L382.62 707.179c-12.84 12.975-12.84 26.869.07 39.867 36.048 36.326 72.075 72.667 108.08 109.023 5.34 5.379 10.703 10.575 18.135 12.931h9.787c7.232-2.062 12.55-6.745 17.733-12.012a28129.794 28129.794 0 0 1 109.058-109.965c12.75-12.84 12.662-27.049-.111-39.979L533.469 594.3c-6.164-6.207-12.817-9.3-19.47-9.3l-.003.022"/></g></svg>
